src/actions/symbolic/text-flow-subtract-frame-symbolic.svg

<svg width="16" height="16" version="1.1" viewBox="0 0 16 16" xmlns="http://www.w3.org/2000/svg">
 <path d="m2 0c-1.108 0-2 0.892-2 2v12c0 1.108 0.892 2 2 2h12c1.108 0 2-0.892 2-2v-12c0-1.108-0.892-2-2-2h-12zm0 1h12c0.554 0 1 0.446 1 1v12c0 0.554-0.446 1-1 1h-12c-0.554 0-1-0.446-1-1v-12c0-0.554 0.446-1 1-1zm0 1v1 1l1-1h2.5v6l-1 1h1 1 1l-1-1v-6h2.5l1 1v-1-1h-8zm8.8281 6.1719-2.8281 2.8281 0.0039062 0.003906-0.0039062 0.00586 2.8281 2.8281 0.70703-0.70703-1.6289-1.6309h4.0938v-1h-4.0859l1.6211-1.6211-0.70703-0.70703z" fill="#363636"/>
</svg>

<svg xmlns="http://www.w3.org/2000/svg" width="16" height="16">
    <path fill="#050505" fill-opacity=".7" d="M2 0C.892 0 0 .892 0 2v12c0 1.108.892 2 2 2h12c1.108 0 2-.892 2-2V2c0-1.108-.892-2-2-2H2zm0 1h12c.554 0 1 .446 1 1v12c0 .554-.446 1-1 1H2c-.554 0-1-.446-1-1V2c0-.554.446-1 1-1zm0 1v2l1-1h2.5v6l-1 1h3l-1-1V3H9l1 1V2H2zm8.828 6.172L8 11l.004.004L8 11.01l2.828 2.828.707-.707L9.906 11.5H14v-1H9.914l1.621-1.621-.707-.707z"/>
</svg>
